X:1
T:Title
%%score { ( 1 4 ) | ( 2 3 ) }
L:1/8
Q:1/4=100
M:6/8
K:F
V:1 treble nm="Grand Piano"
V:4 treble 
V:2 bass 
V:3 bass 
V:1
 [CFA]2 [DFB] [CFA]2 [B,EG] | [A,DF]2 [G,CE] .[B,DG]2[K:bass] [F,B,D] | %2
w: Geo.~C.~Hugg * * *||
 [A,C]2[K:treble] [A,C] [A,CF]2 [CEG] | F3- [Fc]3 | [Fd]2 [Fd] [Fd]2 [Fd] | c2 d c2 A | %6
w: ||||
 G2 G =B2 B | [Ec]3 [GB]3 | [CFA]2 [DFB] [CFA]2 [B,EG] | [A,DF]2 [G,CE] GFD | C2 C F2 A | [EG]6 | %12
w: ||||||
 A2 B c2 A | G2 A cB[DG] | FEF [EA]2 [EG] | F6 | A2 A A2 A | [EG]3 [EG]2 [EG] | A2 B c2 d | c6 | %20
w: ||||||||
 [CGB]2 [CGB] [CGB]2 [CGB] | [CFA]3 [CFA]2 [F=B] | [Ec]2 [CE] .[G,=B,G]2[K:bass] [F,B,D] | C6 | %24
w: ||||
 c2 c c2 c | =B2 B B2 B | [EB]2 [FB] [GB]2 [EB] | [FA]6 | [FA]2 [FA] [FB]2 [Fc] | G2 A cB[B,DG] | %30
w: ||||||
 [A,CF][G,CE][A,CF] [CEA]2 [B,EG] | [A,F]6 |] %32
w: ||
V:2
 F,2 F, F,2 C, | D,2 B,, z FB,, | F,2 F, F,2 D, | z3 A,3 | [B,,B,]2 [B,,B,] [B,,B,]2 [B,,B,] | %5
 [F,A,F]2 [F,B,F] [F,A,F]2 [F,CF] | [G,=B,F]2 [G,B,F] [G,DF]2 [G,DF] | C,3 E,3 | F,2 F, F,2 C, | %9
 D,2 B,, B,,2 [B,,F,B,] | [F,A,]2 [F,A,] [A,C]2 [F,CF] | [C,C]6 | [F,CF]2 [G,CE] [A,CF]2 [F,CF] | %13
 [B,DF]2 [A,^CE] [G,DG]2[K:bass] [B,,B,] | A,G,[C,A,C] [C,C]2 [C,B,] | [F,A,]6 | %16
 [F,CF]2 [F,CF] [F,CF]2 [F,CF] | [C,C]3 [C,C]2 [C,C] | [F,CF]2 [G,CF] [A,CF]2 [B,F] | C6[K:bass] | %20
 E,2 E, E,2 E, | F,3 F,2 [D,G,] | [C,G,]2 G, z FG,, | [C,E,]6 | [A,CF]2 [A,CF] [A,CF]2 [A,CF] | %25
 [G,DF]2 [G,DF] [G,DF]2 [G,DF] | [C,C]2 [D,C] [E,C]2 [C,C] | [F,C]6 | %28
 [F,C]2 [_E,C] [D,B,]2 [C,A,] | [B,DF]2 [A,^CE] [G,DG]2[K:bass] B,, | C,C,C, C,2 C, | F,6 |] %32
V:3
 x6 | z3 .B,,3 | x6 | F,6 | x6 | x6 | x6 | x6 | x6 | x6 | x6 | x6 | x6 | x5[K:bass] x | %14
 .[C,C]3 z3 | x6 | x6 | x6 | x6 | [A,F]3[K:bass] F,3 | x6 | x6 | z3 .G,,3 | x6 | x6 | x6 | x6 | %27
 x6 | x6 | x5[K:bass] x | x6 | x6 |] %32
V:4
 x6 | x5[K:bass] x | x2[K:treble] x4 | [CA]3 z3 | x6 | x6 | x6 | C6 | x6 | z3 .[B,D]3 | x6 | x6 | %12
 x6 | x6 | x6 | x6 | x6 | x6 | x6 | z3 A3 | x6 | x6 | x5[K:bass] x | x6 | x6 | x6 | x6 | x6 | x6 | %29
 x6 | x6 | x6 |] %32

